X:12037
T:Lads-a-Bunchum
T:Oh Dear Mother What a Fool I Be
T:The 29th of May (Headington)
R:March
C:Trad.
O:England; Cotswolds
Z:Paul Hardy's Session Tunebook 2022 (see www.paulhardy.net). Creative Commons cc by-nc-sa licenced.
M:2/2
L:1/8
Q:1/2=80
K:G
DG|"G"B2 B2 BcdB|"Am"c2 A2 A2 Bc|"G"dedB "D7"cdcA|"G"B2 G2 G2:|
gf|"G"e2 d2 d2 GA|"Em"B2 Bc B2 gf|"C"e2 d2 c2 B2|"D7"AGFE D2 DG|
"G"B2 B2 BcdB|"Am"c2 A2 A2 Bc|"G"dedB "D7"cdcA|"G" B2 G2 G2|]

